assets/img/compare/egnyte.svg

<?xml version="1.0" encoding="UTF-8" standalone="no"?>
<svg
   xmlns:dc="http://purl.org/dc/elements/1.1/"
   xmlns:cc="http://creativecommons.org/ns#"
   xmlns:rdf="http://www.w3.org/1999/02/22-rdf-syntax-ns#"
   xmlns:svg="http://www.w3.org/2000/svg"
   xmlns="http://www.w3.org/2000/svg"
   viewBox="0 0 969.29175 238.54762"
   height="238.54762"
   width="969.29175"
   xml:space="preserve"
   version="1.1"
   id="svg2"><metadata
     id="metadata8"><rdf:RDF><cc:Work
         rdf:about=""><dc:format>image/svg+xml</dc:format><dc:type
           rdf:resource="http://purl.org/dc/dcmitype/StillImage" /><dc:title></dc:title></cc:Work></rdf:RDF></metadata><defs
     id="defs6"><clipPath
       id="clipPath20"
       clipPathUnits="userSpaceOnUse"><path
         id="path22"
         d="M 0,323 1000,323 1000,0 0,0 0,323 Z" /></clipPath></defs><g
     transform="matrix(1.25,0,0,-1.25,-116.96725,326.30375)"
     id="g10"><g
       transform="translate(126.1768,132.1582)"
       id="g12"><path
         id="path14"
         style="fill:#489997;fill-opacity:1;fill-rule:nonzero;stroke:none"
         d="m 0,0 57.045,0 0,25.981 -57.045,0 0,17.989 62.99,0 0,28.017 -95.593,0 0,-118.855 96.437,0 0,28.027 L 0,-18.841 0,0 Z" /></g><g
       id="g16"><g
         clip-path="url(#clipPath20)"
         id="g18"><g
           transform="translate(263.5454,130.6377)"
           id="g24"><path
             id="path26"
             style="fill:#489997;fill-opacity:1;fill-rule:nonzero;stroke:none"
             d="m 0,0 23.436,0 0,-14.438 c -4.927,-3.233 -11.042,-4.932 -19.015,-4.932 -18.851,0 -32.268,13.757 -32.268,32.945 l 0,0.333 c 0,18.171 13.256,32.606 30.4,32.606 11.706,0 20.195,-4.073 28.697,-11.207 L 50.606,58.568 C 38.03,69.431 23.269,75.885 2.375,75.885 c -36.847,0 -64.014,-27.167 -64.014,-61.803 l 0,-0.333 c 0,-36.002 27.685,-61.466 64.697,-61.466 21.57,0 39.046,7.971 51.618,18.326 l 0,53.496 L 0,24.105 0,0 Z" /></g><g
           transform="translate(416.1831,141.3232)"
           id="g28"><path
             id="path30"
             style="fill:#489997;fill-opacity:1;fill-rule:nonzero;stroke:none"
             d="m 0,0 -48.892,62.822 -30.74,0 0,-118.855 32.602,0 0,65.204 50.77,-65.204 28.866,0 0,118.855 L 0,62.822 0,0 Z" /></g><g
           transform="translate(653.877,175.2827)"
           id="g32"><path
             id="path34"
             style="fill:#489997;fill-opacity:1;fill-rule:nonzero;stroke:none"
             d="m 0,0 35.658,0 0,-89.993 32.945,0 0,89.993 35.648,0 0,28.862 L 0,28.862 0,0 Z" /></g><g
           transform="translate(805.1572,113.3174)"
           id="g36"><path
             id="path38"
             style="fill:#489997;fill-opacity:1;fill-rule:nonzero;stroke:none"
             d="m 0,0 0,18.841 57.055,0 0,25.981 -57.055,0 0,17.989 62.996,0 0,28.017 -95.593,0 0,-118.855 96.447,0 L 63.85,0 0,0 Z" /></g><g
           transform="translate(551.708,181.0659)"
           id="g40"><path
             id="path42"
             style="fill:#489997;fill-opacity:1;fill-rule:nonzero;stroke:none"
             d="m 0,0 -59.306,43.702 -27.91,-20.563 70.58,-52.01 0.176,-0.232 0,-81.758 33.102,0 0,82.002 70.56,51.998 -27.861,20.6 L 0,0 Z" /></g><g
           transform="translate(592.9932,140.4424)"
           id="g44"><path
             id="path46"
             style="fill:#c12a3a;fill-opacity:1;fill-rule:nonzero;stroke:none"
             d="M 0,0 -9.827,-13.332 34.718,-46.163 44.537,-32.836 0,0 Z" /></g><path
           id="path48"
           style="fill:#c12a3a;fill-opacity:1;fill-rule:nonzero;stroke:none"
           d="m 543.531,205.708 16.562,0 0,55.335 -16.562,0 0,-55.335 z" /><g
           transform="translate(465.8667,107.6064)"
           id="g50"><path
             id="path52"
             style="fill:#c12a3a;fill-opacity:1;fill-rule:nonzero;stroke:none"
             d="M 0,0 9.827,-13.327 54.367,19.504 44.541,32.836 0,0 Z" /></g></g></g></g></svg>

<?xml version="1.0" encoding="UTF-8" standalone="no"?>
<svg
   xmlns:dc="http://purl.org/dc/elements/1.1/"
   xmlns:cc="http://creativecommons.org/ns#"
   xmlns:rdf="http://www.w3.org/1999/02/22-rdf-syntax-ns#"
   xmlns:svg="http://www.w3.org/2000/svg"
   xmlns="http://www.w3.org/2000/svg"
   xmlns:sodipodi="http://sodipodi.sourceforge.net/DTD/sodipodi-0.dtd"
   xmlns:inkscape="http://www.inkscape.org/namespaces/inkscape"
   viewBox="0 0 969.29175 969.29174"
   height="969.29175"
   width="969.29175"
   xml:space="preserve"
   version="1.1"
   id="svg2"
   sodipodi:docname="egnyte.svg"
   inkscape:version="0.92.1 r"><sodipodi:namedview
     pagecolor="#ffffff"
     bordercolor="#666666"
     borderopacity="1"
     objecttolerance="10"
     gridtolerance="10"
     guidetolerance="10"
     inkscape:pageopacity="0"
     inkscape:pageshadow="2"
     inkscape:window-width="2560"
     inkscape:window-height="1353"
     id="namedview27"
     showgrid="false"
     inkscape:zoom="0.34664486"
     inkscape:cx="-12.981586"
     inkscape:cy="119.27381"
     inkscape:window-x="0"
     inkscape:window-y="240"
     inkscape:window-maximized="1"
     inkscape:current-layer="svg2" /><metadata
     id="metadata8"><rdf:RDF><cc:Work
         rdf:about=""><dc:format>image/svg+xml</dc:format><dc:type
           rdf:resource="http://purl.org/dc/dcmitype/StillImage" /><dc:title></dc:title></cc:Work></rdf:RDF></metadata><defs
     id="defs6"><clipPath
       id="clipPath20"
       clipPathUnits="userSpaceOnUse"><path
         id="path22"
         d="M 0,323 H 1000 V 0 H 0 Z"
         inkscape:connector-curvature="0" /></clipPath></defs><g
     transform="matrix(1.25,0,0,-1.25,-116.96725,691.67581)"
     id="g10"><g
       transform="translate(126.1768,132.1582)"
       id="g12"><path
         id="path14"
         style="fill:#489997;fill-opacity:1;fill-rule:nonzero;stroke:none"
         d="M 0,0 H 57.045 V 25.981 H 0 V 43.97 H 62.99 V 71.987 H -32.603 V -46.868 h 96.437 v 28.027 H 0 Z"
         inkscape:connector-curvature="0" /></g><g
       id="g16"><g
         clip-path="url(#clipPath20)"
         id="g18"><g
           transform="translate(263.5454,130.6377)"
           id="g24"><path
             id="path26"
             style="fill:#489997;fill-opacity:1;fill-rule:nonzero;stroke:none"
             d="m 0,0 h 23.436 v -14.438 c -4.927,-3.233 -11.042,-4.932 -19.015,-4.932 -18.851,0 -32.268,13.757 -32.268,32.945 v 0.333 c 0,18.171 13.256,32.606 30.4,32.606 11.706,0 20.195,-4.073 28.697,-11.207 L 50.606,58.568 C 38.03,69.431 23.269,75.885 2.375,75.885 c -36.847,0 -64.014,-27.167 -64.014,-61.803 v -0.333 c 0,-36.002 27.685,-61.466 64.697,-61.466 21.57,0 39.046,7.971 51.618,18.326 V 24.105 H 0 Z"
             inkscape:connector-curvature="0" /></g><g
           transform="translate(416.1831,141.3232)"
           id="g28"><path
             id="path30"
             style="fill:#489997;fill-opacity:1;fill-rule:nonzero;stroke:none"
             d="m 0,0 -48.892,62.822 h -30.74 V -56.033 H -47.03 V 9.171 L 3.74,-56.033 H 32.606 V 62.822 H 0 Z"
             inkscape:connector-curvature="0" /></g><g
           transform="translate(653.877,175.2827)"
           id="g32"><path
             id="path34"
             style="fill:#489997;fill-opacity:1;fill-rule:nonzero;stroke:none"
             d="M 0,0 H 35.658 V -89.993 H 68.603 V 0 h 35.648 V 28.862 H 0 Z"
             inkscape:connector-curvature="0" /></g><g
           transform="translate(805.1572,113.3174)"
           id="g36"><path
             id="path38"
             style="fill:#489997;fill-opacity:1;fill-rule:nonzero;stroke:none"
             d="M 0,0 V 18.841 H 57.055 V 44.822 H 0 V 62.811 H 62.996 V 90.828 H -32.597 V -28.027 H 63.85 V 0 Z"
             inkscape:connector-curvature="0" /></g><g
           transform="translate(551.708,181.0659)"
           id="g40"><path
             id="path42"
             style="fill:#489997;fill-opacity:1;fill-rule:nonzero;stroke:none"
             d="m 0,0 -59.306,43.702 -27.91,-20.563 70.58,-52.01 0.176,-0.232 v -81.758 h 33.102 v 82.002 l 70.56,51.998 -27.861,20.6 z"
             inkscape:connector-curvature="0" /></g><g
           transform="translate(592.9932,140.4424)"
           id="g44"><path
             id="path46"
             style="fill:#c12a3a;fill-opacity:1;fill-rule:nonzero;stroke:none"
             d="m 0,0 -9.827,-13.332 44.545,-32.831 9.819,13.327 z"
             inkscape:connector-curvature="0" /></g><path
           id="path48"
           style="fill:#c12a3a;fill-opacity:1;fill-rule:nonzero;stroke:none"
           d="m 543.531,205.708 h 16.562 v 55.335 h -16.562 z"
           inkscape:connector-curvature="0" /><g
           transform="translate(465.8667,107.6064)"
           id="g50"><path
             id="path52"
             style="fill:#c12a3a;fill-opacity:1;fill-rule:nonzero;stroke:none"
             d="m 0,0 9.827,-13.327 44.54,32.831 -9.826,13.332 z"
             inkscape:connector-curvature="0" /></g></g></g></g></svg>
